X:5101
T:Phroinsias Ui Mhaonaigh's Mazurka #1
O:england
M:3/4
L:1/8
S:Mairead Mhaonaigh & Frankie Kennedy
D:Ceol Aduaidh
K:D
DF|AF A2dc|BG B2ed|cB c2BA|F2F2DF|AF A2dc|\
BG B2ed|cB c2BA|d2d2::fg|af d2A2|c2B2ef|\
ge c2A2|Bc A2fg|af d2A2|c2B2ef|gecABc|d2d2:|


